src/public/assets/tokens/gnt.svg

<svg width="24" height="24" viewBox="0 0 24 24" fill="none" xmlns="http://www.w3.org/2000/svg">
<path d="M14.4659 9.71603C14.9065 9.27843 15.2556 8.75744 15.4927 8.18347C15.7298 7.6095 15.8502 6.99403 15.8469 6.37302C15.8463 5.26506 15.4571 4.19244 14.7469 3.34204L17.4949 0.594025L16.8819 -0.000976562L14.1339 2.74704C13.5648 2.27521 12.8928 1.94361 12.1722 1.77896C11.4515 1.61431 10.7022 1.62119 9.98467 1.79907C9.26714 1.97695 8.60144 2.32085 8.04113 2.80307C7.48081 3.28529 7.04157 3.89236 6.75878 4.57538C6.47598 5.2584 6.35751 5.99828 6.41295 6.73544C6.4684 7.47261 6.69621 8.18645 7.07799 8.81949C7.45977 9.45252 7.98487 9.98705 8.61101 10.38C9.23715 10.773 9.94679 11.0135 10.6829 11.082V14.566C9.58332 14.6584 8.55387 15.1437 7.78289 15.933C6.89835 16.8206 6.40166 18.0225 6.40166 19.2755C6.40166 20.5286 6.89835 21.7305 7.78289 22.618C8.31971 23.1538 8.97761 23.5526 9.70098 23.7806C10.4243 24.0087 11.192 24.0593 11.939 23.9283C12.6861 23.7972 13.3906 23.4883 13.9932 23.0276C14.5957 22.567 15.0785 21.9681 15.4009 21.2815C15.7233 20.595 15.8758 19.841 15.8454 19.0831C15.815 18.3252 15.6028 17.5858 15.2265 16.9273C14.8502 16.2687 14.321 15.7104 13.6835 15.2994C13.0461 14.8884 12.319 14.6369 11.5639 14.566V11.082C12.6637 10.9905 13.6934 10.5051 14.4639 9.71503L14.4659 9.71603ZM13.8509 16.542C14.2095 16.9005 14.494 17.3261 14.688 17.7945C14.8821 18.2629 14.982 18.765 14.982 19.272C14.982 19.7791 14.8821 20.2812 14.688 20.7496C14.494 21.218 14.2095 21.6436 13.8509 22.002C13.4947 22.3637 13.0696 22.6502 12.6006 22.8445C12.1317 23.0388 11.6285 23.1369 11.1209 23.133C10.3573 23.133 9.61083 22.9065 8.97594 22.4822C8.34105 22.058 7.84627 21.455 7.55407 20.7495C7.26186 20.0441 7.18539 19.2678 7.33434 18.5189C7.48329 17.7699 7.85094 17.082 8.39086 16.542C8.74931 16.1834 9.17494 15.8989 9.64336 15.7049C10.1118 15.5108 10.6139 15.4109 11.1209 15.4109C11.6279 15.4109 12.13 15.5108 12.5984 15.7049C13.0668 15.8989 13.4924 16.1834 13.8509 16.542ZM11.1209 10.248C10.3573 10.248 9.61083 10.0215 8.97594 9.59726C8.34105 9.173 7.84627 8.57 7.55407 7.86453C7.26186 7.15906 7.18539 6.38277 7.33434 5.63385C7.48329 4.88493 7.85094 4.19701 8.39086 3.65704C8.74701 3.29536 9.17221 3.00886 9.64116 2.81458C10.1101 2.62029 10.6133 2.52218 11.1209 2.52603C11.6281 2.52519 12.1303 2.62468 12.5989 2.81879C13.0674 3.01289 13.4929 3.2978 13.8509 3.65704C14.2126 4.0132 14.4991 4.43833 14.6933 4.90729C14.8876 5.37624 14.9857 5.87944 14.9819 6.38702C14.9827 6.89417 14.8832 7.39649 14.6891 7.86502C14.495 8.33355 14.2101 8.75906 13.8509 9.11703C13.4954 9.47964 13.0704 9.76671 12.6012 9.96106C12.1321 10.1554 11.6287 10.253 11.1209 10.248Z" fill="#0050db"/>
</svg>

<svg id="Слой_1" data-name="Слой 1" xmlns="http://www.w3.org/2000/svg" viewBox="0 0 24 25"><title>GNTМонтажная область 1</title><path d="M14.47,9.72a4.55,4.55,0,0,0,1-1.54,4.68,4.68,0,0,0,.36-1.81,4.74,4.74,0,0,0-1.1-3L17.5.59,16.88,0,14.13,2.75a4.69,4.69,0,0,0-2-1,4.7,4.7,0,0,0-5.41,2.8,4.82,4.82,0,0,0-.35,2.16,4.81,4.81,0,0,0,.67,2.08,4.66,4.66,0,0,0,1.53,1.56,4.81,4.81,0,0,0,2.07.7v3.49a4.56,4.56,0,0,0-2.9,1.36,4.74,4.74,0,0,0,0,6.69A4.86,4.86,0,0,0,9.7,23.78,4.71,4.71,0,0,0,14,23a4.62,4.62,0,0,0,1.41-1.75,4.75,4.75,0,0,0,.45-2.2,4.81,4.81,0,0,0-.62-2.15,4.74,4.74,0,0,0-1.55-1.63,4.67,4.67,0,0,0-2.12-.73V11.08a4.56,4.56,0,0,0,2.9-1.36Zm-.62,6.82a4,4,0,0,1,.84,1.26A3.89,3.89,0,0,1,15,19.27a3.92,3.92,0,0,1-2.38,3.58,3.75,3.75,0,0,1-1.48.28A3.8,3.8,0,0,1,9,22.48a3.84,3.84,0,0,1-1.43-1.73,4,4,0,0,1-.22-2.23,3.84,3.84,0,0,1,2.31-2.81,3.88,3.88,0,0,1,4.21.83Zm-2.73-6.29A3.87,3.87,0,0,1,9,9.6,4,4,0,0,1,7.55,7.87a4,4,0,0,1-.22-2.24,3.89,3.89,0,0,1,1.06-2,3.77,3.77,0,0,1,1.25-.84,3.59,3.59,0,0,1,1.48-.29,3.94,3.94,0,0,1,1.48.29,3.77,3.77,0,0,1,1.25.84,3.67,3.67,0,0,1,.84,1.25A3.59,3.59,0,0,1,15,6.39a3.94,3.94,0,0,1-.29,1.48,3.88,3.88,0,0,1-.84,1.25A3.67,3.67,0,0,1,12.6,10,3.76,3.76,0,0,1,11.12,10.25Z"/></svg>
